src/lib/packages/icons/src/assets/filled/google.svg

<svg width="24" height="24" viewBox="0 0 24 24" fill="none" xmlns="http://www.w3.org/2000/svg">
<path d="M21.5 12.23C21.5 15.27 20.42 17.84 18.54 19.58C16.9 21.1 14.65 22 11.96 22C8.07002 22 4.70001 19.75 3.07001 16.48C2.39001 15.13 2 13.61 2 12C2 10.39 2.39001 8.86999 3.07001 7.51999C4.71001 4.24999 8.07002 2 11.96 2C14.65 2 16.9 2.98999 18.62 4.60999L15.78 7.45999C14.74 6.46999 13.43 5.95999 11.96 5.95999C9.36002 5.95999 7.16 7.72 6.37 10.09C6.17 10.69 6.04999 11.33 6.04999 12C6.04999 12.67 6.16 13.31 6.37 13.91C7.16 16.29 9.36002 18.04 11.96 18.04C13.3 18.04 14.44 17.67 15.34 17.07C16.39 16.36 17.09 15.32 17.33 14.09H11.96V10.33H21.34C21.44 10.94 21.5 11.56 21.5 12.22V12.23Z" fill="currentColor"/>
</svg>

<svg xmlns="http://www.w3.org/2000/svg" width="24" height="24" fill="none"><path fill="currentColor" d="M21.5 12.23c0 3.04-1.08 5.61-2.96 7.35C16.9 21.1 14.65 22 11.96 22c-3.89 0-7.26-2.25-8.89-5.52A9.93 9.93 0 0 1 2 12c0-1.61.39-3.13 1.07-4.48C4.71 4.25 8.07 2 11.96 2c2.69 0 4.94.99 6.66 2.61l-2.84 2.85c-1.04-.99-2.35-1.5-3.82-1.5-2.6 0-4.8 1.76-5.59 4.13-.2.6-.32 1.24-.32 1.91 0 .67.11 1.31.32 1.91.79 2.38 2.99 4.13 5.59 4.13 1.34 0 2.48-.37 3.38-.97 1.05-.71 1.75-1.75 1.99-2.98h-5.37v-3.76h9.38c.1.61.16 1.23.16 1.89v.01Z"/></svg>
